X: 42885
T: Wiliam Tremblay's Dream
R: reel
M: 4/4
K: Gmajor
|:"G" g2 dg BgGg|baag "Am" a2 ea|caAf aggf|"G" g2 dg BgGg|
"Am" baae "G" gdBG|"C"c2 A/B/c "G/B"B2 G/A/B|"D"AFDF AG "G"GF [M: 2/4]|1 G4:|2 G3 c||
|:"G" BGGG AGAB|"Am"c3 d cBce|"G"d3 e "G/B"dcBd|
"C"c2 A/B/c "G/B"B2 G/A/B|"D"AFDF AG "G"GF [M: 2/4]|1 G3 c:|2 G4||

